X:125
T: Wedding Feast
S: "Music of Ireland - The Big Session" (DJ Taylor)
Z: B.Black
L: 1/8
M: 12/8
R: slide
K: Ador
E2 A ABA c2 d e3|d3 d^cd B2 d g3|\
E2 A ABA c2 d e2 e|d2 B A2 G A6 :|
e3 ded c3 BcB|A3 ecA G2 E E2 D|\
E2 A ABA c2 d e2 e|d2 B A2 G A6 :|
